svg/email_remove_outline.svg

<svg xmlns="http://www.w3.org/2000/svg" viewBox="0 0 24 24"><path d="M13.09 18H4V8l8 5 8-5v5.09c.72.12 1.39.37 2 .72V6c0-1.1-.9-2-2-2H4c-1.1 0-2 .9-2 2v12c0 1.1.9 2 2 2h9.09c-.05-.33-.09-.66-.09-1s.04-.67.09-1M20 6l-8 5-8-5zm.41 13 2.13 2.12-1.42 1.42L19 20.41l-2.12 2.13-1.41-1.42L17.59 19l-2.12-2.12 1.41-1.41L19 17.59l2.12-2.12 1.42 1.41z"/></svg>

<?xml version="1.0" encoding="UTF-8"?><!DOCTYPE svg PUBLIC "-//W3C//DTD SVG 1.1//EN" "http://www.w3.org/Graphics/SVG/1.1/DTD/svg11.dtd"><svg xmlns="http://www.w3.org/2000/svg" xmlns:xlink="http://www.w3.org/1999/xlink" version="1.1" id="mdi-email-remove-outline" width="24" height="24" viewBox="0 0 24 24"><path d="M13.09 18H4V8L12 13L20 8V13.09C20.72 13.21 21.39 13.46 22 13.81V6C22 4.9 21.1 4 20 4H4C2.9 4 2 4.9 2 6V18C2 19.1 2.9 20 4 20H13.09C13.04 19.67 13 19.34 13 19C13 18.66 13.04 18.33 13.09 18M20 6L12 11L4 6H20M20.41 19L22.54 21.12L21.12 22.54L19 20.41L16.88 22.54L15.47 21.12L17.59 19L15.47 16.88L16.88 15.47L19 17.59L21.12 15.47L22.54 16.88L20.41 19Z" /></svg>
